X:1
T:Title
%%score { ( 1 3 ) | 2 }
L:1/8
Q:1/4=84
M:6/8
K:C
V:1 treble nm="Grand Piano"
V:3 treble 
V:2 bass 
V:1
 [EG][EG][EG] [EG]2 [EG] | [Ac][GB][FA] [EG]2 [CE] | [DF][DF][DF] [DF]2 [DF] | %3
w: I.~N.~McHose * * * *|||
 [FA][EG][DF] .[CE]3 | [EG][EG][EG] [EG]2 [EG] | [Ec][FB][Gc] A2 c | GGG G2 G | %7
w: ||||
 G[^FA][=FB] .[Ec]3 | .[Ec]3 z3 | [Ec][DB][Ec] .[Gd]3 | .[GB]3 z3 | [Gc][GB][^FA] .G3 | EEE E2 E | %13
w: ||||||
 FFG A2 A | GGG G[^FA][=FB] | [Ec]6 |] %16
w: |||
V:2
 [C,C][C,C][C,C] [C,C]2 [C,C] | [F,C][F,C][F,C] [C,C]2 [C,G,] | %2
 [G,,G,][G,,G,][G,,G,] [G,,G,]2 [G,,G,] | [G,,G,][G,,G,][G,,G,] .[C,G,]3 | %4
 [C,C][C,C][C,C] [C,C]2 [C,C] | [C,G,][D,G,][E,C] [F,CF]2 [F,A,F] | G,G,G, G,2 G, | %7
 [G,,G,][G,,G,][G,,G,] .[C,G,]3 | [C,G,]C,C, [C,G,]2 [C,G,] | [C,G,][C,G,][C,G,] .[G,B,]3 | %10
 [G,D]G,G,[K:treble] [G,DG]2 [G,DG] | [D,D][D,D][D,C] .[G,B,]3 | %12
 [C,G,C][C,G,C][C,G,C] [C,G,C]2 [C,G,C] | [D,G,B,][D,G,B,][E,C] [F,CF]2 [^F,C_E] | %14
 [G,E][G,E][G,E] G,[G,,G,][G,,G,] | [C,G,]6 |] %16
V:3
 x6 | x6 | x6 | x6 | x6 | x6 | x6 | x6 | z G,G, [Ec]2 [Ec] | x6 | z DD B2 B | x6 | x6 | x6 | x6 | %15
 x6 |] %16

